assets/img/paste.svg

<svg xmlns="http://www.w3.org/2000/svg" height="48" width="48"><path fill="#3e4855" d="M9 42q-1.3 0-2.15-.85Q6 40.3 6 39V8.55q0-1.3.85-2.15.85-.85 2.15-.85h10.25q.2-1.85 1.525-3.1T24 1.2q1.9 0 3.225 1.25 1.325 1.25 1.525 3.1H39q1.3 0 2.15.85.85.85.85 2.15V39q0 1.3-.85 2.15Q40.3 42 39 42Zm0-3h30V8.55h-3v4.5H12v-4.5H9V39ZM24 8.7q.9 0 1.575-.675.675-.675.675-1.575 0-.9-.675-1.575Q24.9 4.2 24 4.2q-.9 0-1.575.675-.675.675-.675 1.575 0 .9.675 1.575Q23.1 8.7 24 8.7Z"/></svg>

<svg xmlns="http://www.w3.org/2000/svg" height="48" width="48"><path fill="#3e4855" d="M9 42Q7.7 42 6.85 41.15Q6 40.3 6 39V8.55Q6 7.25 6.85 6.4Q7.7 5.55 9 5.55H19.25Q19.45 3.7 20.775 2.45Q22.1 1.2 24 1.2Q25.9 1.2 27.225 2.45Q28.55 3.7 28.75 5.55H39Q40.3 5.55 41.15 6.4Q42 7.25 42 8.55V39Q42 40.3 41.15 41.15Q40.3 42 39 42ZM9 39H39Q39 39 39 39Q39 39 39 39V8.55Q39 8.55 39 8.55Q39 8.55 39 8.55H36V13.05H12V8.55H9Q9 8.55 9 8.55Q9 8.55 9 8.55V39Q9 39 9 39Q9 39 9 39ZM24 8.7Q24.9 8.7 25.575 8.025Q26.25 7.35 26.25 6.45Q26.25 5.55 25.575 4.875Q24.9 4.2 24 4.2Q23.1 4.2 22.425 4.875Q21.75 5.55 21.75 6.45Q21.75 7.35 22.425 8.025Q23.1 8.7 24 8.7Z"/></svg>
